%
( CAM-O-Mill Generic G-Code PostProcessor )
( Generic_MILL_XYZ )
( Version 1.0 )
G17 G21 G40 G49 G64P0.050 G90 G90.1 G94
T1
M6
S10000M3
G0Z20.000
G0X0.000Y0.000
M7
( Drill: Bohren )
G0X-2.875Y2.809
G0Z1.000
G1Z-1.800F180
G0Z1.000
G0X-4.145Y10.429
G0Z1.000
G1Z-1.800F180
G0Z1.000
G0X-4.145Y12.969
G0Z1.000
G1Z-1.800F180
G0Z1.000
G0X-9.225Y10.429
G0Z1.000
G1Z-1.800F180
G0Z1.000
G0X-13.035Y10.429
G0Z1.000
G1Z-1.800F180
G0Z1.000
G0X-13.035Y7.887
G0Z1.000
G1Z-1.800F180
G0Z1.000
G0X-16.845Y10.429
G0Z1.000
G1Z-1.800F180
G0Z1.000
G0X-20.655Y10.429
G0Z1.000
G1Z-1.800F180
G0Z1.000
G0X-20.655Y7.887
G0Z1.000
G1Z-1.800F180
G0Z1.000
G0X-24.465Y10.429
G0Z1.000
G1Z-1.800F180
G0Z1.000
G0X-28.275Y10.429
G0Z1.000
G1Z-1.800F180
G0Z1.000
G0X-28.275Y12.969
G0Z1.000
G1Z-1.800F180
G0Z1.000
G0X-32.085Y15.509
G0Z1.000
G1Z-1.800F180
G0Z1.000
G0X-35.895Y12.969
G0Z1.000
G1Z-1.800F180
G0Z1.000
G0X-35.895Y10.429
G0Z1.000
G1Z-1.800F180
G0Z1.000
G0X-35.895Y7.887
G0Z1.000
G1Z-1.800F180
G0Z1.000
G0X-32.085Y10.429
G0Z1.000
G1Z-1.800F180
G0Z1.000
G0X-28.275Y7.887
G0Z1.000
G1Z-1.800F180
G0Z1.000
G0X-24.465Y15.509
G0Z1.000
G1Z-1.800F180
G0Z1.000
G0X-20.655Y12.969
G0Z1.000
G1Z-1.800F180
G0Z1.000
G0X-16.845Y15.509
G0Z1.000
G1Z-1.800F180
G0Z1.000
G0X-13.035Y12.969
G0Z1.000
G1Z-1.800F180
G0Z1.000
G0X-9.225Y15.509
G0Z1.000
G1Z-1.800F180
G0Z1.000
G0X-10.495Y20.589
G0Z1.000
G1Z-1.800F180
G0Z1.000
G0X-13.035Y20.589
G0Z1.000
G1Z-1.800F180
G0Z1.000
G0X-15.575Y20.589
G0Z1.000
G1Z-1.800F180
G0Z1.000
G0X-18.115Y20.589
G0Z1.000
G1Z-1.800F180
G0Z1.000
G0X-20.655Y20.589
G0Z1.000
G1Z-1.800F180
G0Z1.000
G0X-23.195Y20.589
G0Z1.000
G1Z-1.800F180
G0Z1.000
G0X-25.735Y20.589
G0Z1.000
G1Z-1.800F180
G0Z1.000
G0X-28.275Y20.589
G0Z1.000
G1Z-1.800F180
G0Z1.000
G0X-30.815Y20.589
G0Z1.000
G1Z-1.800F180
G0Z1.000
G0X-33.355Y20.589
G0Z1.000
G1Z-1.800F180
G0Z1.000
G0X-35.895Y20.589
G0Z1.000
G1Z-1.800F180
G0Z1.000
G0X-38.435Y20.589
G0Z1.000
G1Z-1.800F180
G0Z1.000
G0X-40.975Y20.589
G0Z1.000
G1Z-1.800F180
G0Z1.000
G0X-43.515Y20.589
G0Z1.000
G1Z-1.800F180
G0Z1.000
G0X-46.055Y20.589
G0Z1.000
G1Z-1.800F180
G0Z1.000
G0X-48.595Y20.589
G0Z1.000
G1Z-1.800F180
G0Z1.000
G0X-49.865Y12.969
G0Z1.000
G1Z-1.800F180
G0Z1.000
G0X-47.325Y12.969
G0Z1.000
G1Z-1.800F180
G0Z1.000
G0X-43.515Y12.969
G0Z1.000
G1Z-1.800F180
G0Z1.000
G0X-43.515Y10.429
G0Z1.000
G1Z-1.800F180
G0Z1.000
G0X-43.515Y7.887
G0Z1.000
G1Z-1.800F180
G0Z1.000
G0X-39.705Y10.429
G0Z1.000
G1Z-1.800F180
G0Z1.000
G0X-39.705Y15.509
G0Z1.000
G1Z-1.800F180
G0Z1.000
G0X-49.865Y7.887
G0Z1.000
G1Z-1.800F180
G0Z1.000
G0X-47.325Y2.807
G0Z1.000
G1Z-1.800F180
G0Z1.000
G0X-56.215Y5.347
G0Z1.000
G1Z-1.800F180
G0Z1.000
G0X-60.025Y10.429
G0Z1.000
G1Z-1.800F180
G0Z1.000
G0X-60.025Y12.969
G0Z1.000
G1Z-1.800F180
G0Z1.000
G0X-56.215Y12.969
G0Z1.000
G1Z-1.800F180
G0Z1.000
G0X-66.375Y12.969
G0Z1.000
G1Z-1.800F180
G0Z1.000
G0X-66.375Y10.429
G0Z1.000
G1Z-1.800F180
G0Z1.000
G0X-72.725Y10.429
G0Z1.000
G1Z-1.800F180
G0Z1.000
G0X-72.725Y12.969
G0Z1.000
G1Z-1.800F180
G0Z1.000
G0X-79.075Y12.969
G0Z1.000
G1Z-1.800F180
G0Z1.000
G0X-79.075Y10.429
G0Z1.000
G1Z-1.800F180
G0Z1.000
G0X-85.425Y10.429
G0Z1.000
G1Z-1.800F180
G0Z1.000
G0X-85.425Y12.969
G0Z1.000
G1Z-1.800F180
G0Z1.000
G0X-85.425Y19.319
G0Z1.000
G1Z-1.800F180
G0Z1.000
G0X-85.425Y21.859
G0Z1.000
G1Z-1.800F180
G0Z1.000
G0X-85.425Y24.399
G0Z1.000
G1Z-1.800F180
G0Z1.000
G0X-85.425Y26.939
G0Z1.000
G1Z-1.800F180
G0Z1.000
G0X-85.425Y29.479
G0Z1.000
G1Z-1.800F180
G0Z1.000
G0X-90.505Y26.939
G0Z1.000
G1Z-1.800F180
G0Z1.000
G0X-90.505Y19.319
G0Z1.000
G1Z-1.800F180
G0Z1.000
G0X-93.045Y2.809
G0Z1.000
G1Z-1.800F180
G0Z1.000
G0X-72.725Y24.399
G0Z1.000
G1Z-1.800F180
G0Z1.000
G0X-66.375Y26.939
G0Z1.000
G1Z-1.800F180
G0Z1.000
G0X-66.375Y29.479
G0Z1.000
G1Z-1.800F180
G0Z1.000
G0X-66.375Y32.019
G0Z1.000
G1Z-1.800F180
G0Z1.000
G0X-66.375Y34.559
G0Z1.000
G1Z-1.800F180
G0Z1.000
G0X-66.375Y37.099
G0Z1.000
G1Z-1.800F180
G0Z1.000
G0X-72.725Y32.019
G0Z1.000
G1Z-1.800F180
G0Z1.000
G0X-77.805Y35.829
G0Z1.000
G1Z-1.800F180
G0Z1.000
G0X-77.805Y38.369
G0Z1.000
G1Z-1.800F180
G0Z1.000
G0X-77.805Y40.909
G0Z1.000
G1Z-1.800F180
G0Z1.000
G0X-77.805Y43.449
G0Z1.000
G1Z-1.800F180
G0Z1.000
G0X-85.425Y43.449
G0Z1.000
G1Z-1.800F180
G0Z1.000
G0X-85.425Y40.909
G0Z1.000
G1Z-1.800F180
G0Z1.000
G0X-85.425Y38.369
G0Z1.000
G1Z-1.800F180
G0Z1.000
G0X-85.425Y35.829
G0Z1.000
G1Z-1.800F180
G0Z1.000
G0X-93.045Y58.689
G0Z1.000
G1Z-1.800F180
G0Z1.000
G0X-44.785Y53.609
G0Z1.000
G1Z-1.800F180
G0Z1.000
G0X-44.785Y49.799
G0Z1.000
G1Z-1.800F180
G0Z1.000
G0X-34.625Y49.799
G0Z1.000
G1Z-1.800F180
G0Z1.000
G0X-34.625Y53.609
G0Z1.000
G1Z-1.800F180
G0Z1.000
G0X-28.275Y45.989
G0Z1.000
G1Z-1.800F180
G0Z1.000
G0X-23.195Y45.989
G0Z1.000
G1Z-1.800F180
G0Z1.000
G0X-20.655Y45.989
G0Z1.000
G1Z-1.800F180
G0Z1.000
G0X-20.655Y48.529
G0Z1.000
G1Z-1.800F180
G0Z1.000
G0X-23.195Y48.529
G0Z1.000
G1Z-1.800F180
G0Z1.000
G0X-23.195Y43.449
G0Z1.000
G1Z-1.800F180
G0Z1.000
G0X-20.655Y43.449
G0Z1.000
G1Z-1.800F180
G0Z1.000
G0X-15.575Y45.989
G0Z1.000
G1Z-1.800F180
G0Z1.000
G0X-10.495Y45.989
G0Z1.000
G1Z-1.800F180
G0Z1.000
G0X-13.035Y35.829
G0Z1.000
G1Z-1.800F180
G0Z1.000
G0X-15.575Y35.829
G0Z1.000
G1Z-1.800F180
G0Z1.000
G0X-18.115Y35.829
G0Z1.000
G1Z-1.800F180
G0Z1.000
G0X-20.655Y35.829
G0Z1.000
G1Z-1.800F180
G0Z1.000
G0X-23.195Y35.829
G0Z1.000
G1Z-1.800F180
G0Z1.000
G0X-25.735Y35.829
G0Z1.000
G1Z-1.800F180
G0Z1.000
G0X-28.275Y35.829
G0Z1.000
G1Z-1.800F180
G0Z1.000
G0X-30.815Y35.829
G0Z1.000
G1Z-1.800F180
G0Z1.000
G0X-33.355Y35.829
G0Z1.000
G1Z-1.800F180
G0Z1.000
G0X-35.895Y35.829
G0Z1.000
G1Z-1.800F180
G0Z1.000
G0X-38.435Y35.829
G0Z1.000
G1Z-1.800F180
G0Z1.000
G0X-40.975Y35.829
G0Z1.000
G1Z-1.800F180
G0Z1.000
G0X-43.515Y35.829
G0Z1.000
G1Z-1.800F180
G0Z1.000
G0X-46.055Y35.829
G0Z1.000
G1Z-1.800F180
G0Z1.000
G0X-48.595Y35.829
G0Z1.000
G1Z-1.800F180
G0Z1.000
G0X-28.275Y38.369
G0Z1.000
G1Z-1.800F180
G0Z1.000
G0X-10.495Y28.209
G0Z1.000
G1Z-1.800F180
G0Z1.000
G0X-5.415Y28.209
G0Z1.000
G1Z-1.800F180
G0Z1.000
G0X-5.415Y20.589
G0Z1.000
G1Z-1.800F180
G0Z1.000
G0X-2.875Y58.689
G0Z1.000
G1Z-1.800F180
G0Z1.000
G0Z20.000
G0X0.000Y0.000
M9
M5
M2
%
